public/assets/create.svg

<svg width="24" height="24" viewBox="0 0 24 24" fill="none" xmlns="http://www.w3.org/2000/svg">
<path fill-rule="evenodd" clip-rule="evenodd" d="M18.5 1.25C18.9142 1.25 19.25 1.58579 19.25 2V4.75H22C22.4142 4.75 22.75 5.08579 22.75 5.5C22.75 5.91421 22.4142 6.25 22 6.25H19.25V9C19.25 9.41421 18.9142 9.75 18.5 9.75C18.0858 9.75 17.75 9.41421 17.75 9V6.25H15C14.5858 6.25 14.25 5.91421 14.25 5.5C14.25 5.08579 14.5858 4.75 15 4.75H17.75V2C17.75 1.58579 18.0858 1.25 18.5 1.25Z" fill="#EFEFEF"/>
<path fill-rule="evenodd" clip-rule="evenodd" d="M12 1.25L11.9426 1.25C9.63423 1.24999 7.82519 1.24998 6.41371 1.43975C4.96897 1.63399 3.82895 2.03933 2.93414 2.93414C2.03933 3.82895 1.63399 4.96897 1.43975 6.41371C1.24998 7.82519 1.24999 9.63423 1.25 11.9426V12.0574C1.24999 14.3658 1.24998 16.1748 1.43975 17.5863C1.63399 19.031 2.03933 20.1711 2.93414 21.0659C3.82895 21.9607 4.96897 22.366 6.41371 22.5603C7.82519 22.75 9.63423 22.75 11.9426 22.75H12.0574C14.3658 22.75 16.1748 22.75 17.5863 22.5603C19.031 22.366 20.1711 21.9607 21.0659 21.0659C21.9607 20.1711 22.366 19.031 22.5603 17.5863C22.75 16.1748 22.75 14.3658 22.75 12.0574V12C22.75 11.5858 22.4142 11.25 22 11.25C21.5858 11.25 21.25 11.5858 21.25 12C21.25 14.3782 21.2484 16.0864 21.0736 17.3864C21.0667 17.4377 21.0596 17.4882 21.0522 17.5378L18.2782 15.0412C16.9788 13.8718 15.0437 13.7553 13.6134 14.7605L13.3152 14.9701C12.8182 15.3193 12.1421 15.2608 11.7125 14.8313L7.42282 10.5415C6.28741 9.40612 4.46613 9.34547 3.25771 10.4028L2.75098 10.8462C2.75552 9.05395 2.78124 7.69302 2.92637 6.61358C3.09825 5.33517 3.42514 4.56445 3.9948 3.9948C4.56445 3.42514 5.33517 3.09825 6.61358 2.92637C7.91356 2.75159 9.62177 2.75 12 2.75C12.4142 2.75 12.75 2.41421 12.75 2C12.75 1.58579 12.4142 1.25 12 1.25ZM2.92637 17.3864C3.09825 18.6648 3.42514 19.4355 3.9948 20.0052C4.56445 20.5749 5.33517 20.9018 6.61358 21.0736C7.91356 21.2484 9.62177 21.25 12 21.25C14.3782 21.25 16.0864 21.2484 17.3864 21.0736C18.6648 20.9018 19.4355 20.5749 20.0052 20.0052C20.2487 19.7617 20.4479 19.4814 20.6096 19.1404C20.5707 19.1166 20.5334 19.089 20.4983 19.0574L17.2747 16.1562C16.4951 15.4545 15.334 15.3846 14.4758 15.9877L14.1776 16.1973C13.0843 16.9657 11.5968 16.8369 10.6519 15.8919L6.36216 11.6022C5.78515 11.0252 4.85958 10.9944 4.24546 11.5317L2.75038 12.8399C2.75296 14.7884 2.77289 16.2448 2.92637 17.3864Z" fill="#EFEFEF"/>
</svg>

<svg width="24" height="24" fill="none" xmlns="http://www.w3.org/2000/svg"><path fill-rule="evenodd" clip-rule="evenodd" d="M18.5 1.25a.75.75 0 0 1 .75.75v2.75H22a.75.75 0 0 1 0 1.5h-2.75V9a.75.75 0 0 1-1.5 0V6.25H15a.75.75 0 0 1 0-1.5h2.75V2a.75.75 0 0 1 .75-.75Z" fill="#EFEFEF"/><path fill-rule="evenodd" clip-rule="evenodd" d="M12 1.25h-.057c-2.309 0-4.118 0-5.53.19-1.444.194-2.584.6-3.479 1.494-.895.895-1.3 2.035-1.494 3.48-.19 1.411-.19 3.22-.19 5.529v.114c0 2.309 0 4.118.19 5.53.194 1.444.6 2.584 1.494 3.479.895.895 2.035 1.3 3.48 1.494 1.411.19 3.22.19 5.529.19h.114c2.309 0 4.118 0 5.53-.19 1.444-.194 2.584-.6 3.479-1.494.895-.895 1.3-2.035 1.494-3.48.19-1.411.19-3.22.19-5.529V12a.75.75 0 0 0-1.5 0c0 2.378-.002 4.086-.176 5.386l-.022.152-2.774-2.497a3.75 3.75 0 0 0-4.665-.28l-.298.21a1.25 1.25 0 0 1-1.602-.14l-4.29-4.29a3.05 3.05 0 0 0-4.165-.138l-.507.443c.005-1.792.03-3.153.175-4.232.172-1.279.5-2.05 1.069-2.62.57-.569 1.34-.896 2.619-1.068 1.3-.174 3.008-.176 5.386-.176a.75.75 0 0 0 0-1.5ZM2.926 17.386c.172 1.279.5 2.05 1.069 2.62.57.569 1.34.896 2.619 1.068 1.3.174 3.008.176 5.386.176s4.086-.002 5.386-.176c1.279-.172 2.05-.5 2.62-1.069a3.04 3.04 0 0 0 .604-.865.755.755 0 0 1-.112-.083l-3.223-2.9a2.25 2.25 0 0 0-2.8-.17l-.297.21a2.75 2.75 0 0 1-3.526-.305l-4.29-4.29a1.55 1.55 0 0 0-2.117-.07L2.75 12.84c.003 1.948.023 3.405.176 4.546Z" fill="#EFEFEF"/></svg>
